X: 11039
T: Dublin Fiddler, The
R: reel
M: 4/4
K: Dmajor
(AG)|:(FA) (EA) D2 (FA)|(dc) (dB) A2 (Bc)|
[1 (dc) (df) (ed) (cB)|A2 a2 a2 (AG):|2 (dc) (cf) (ed) (ce)|f2 d2 d2 (gf)||
(ea) (ba) (gf) (ed)|(ce) (a^g) a2 (a_g)|(fe) (dc) (dc) (df)|e2 A2 A2 (gf)|
(ea) (ba) (gf) (ed)|(ce) (a^g) a2 (a_g)|(fe) (ac) (Bg) (fe)|d2 D2 D2 z2||

